X:144
T:Å Adelin tjente på konungens gård
T:(Olar Adelin)
O:Hulteberg, Värmland
B:EÖ, nr 144
R:Visa
S:efter [[Personer/Sigrid Andersdotter]] (Hultman)
Z:Nils L
M:4/4
L:1/8
K:Am
E | E2 ^GB A2 BA | =GF ED2< C2C | D>D DD E2 AG | F2 E3zz E ^G |
AA GF D2 EF | E>D CB, A,2>A,2 | A>A cB ^GA cc | B3 A3 zz  B3 A/ :|
